assets/logos/DINVetor.svg

<svg xmlns="http://www.w3.org/2000/svg" width="731" height="287" fill="none"><path fill="#fff" stroke="#fff" d="M414.5 223.5h-75V220l6-3.5 9-7.5 4-11.5 21.5-114 2-17.5 3-2.5 39-8 3.5-16L386 48l-1-1.5V35l2-3.5v-8l-2-5-5-4-6.5-2 3-3 70.5-2 3 2v3l-8 4-6 7-3.5 8V35l19.5-3.5 35-5.5 32.5-4.5 27-3 31.5-2h70.5l22 2L692 23l17.5 5 7.5 5 7 6.5 4 8.5 2 5v17.5L726.5 81l-5 9.5-12 17-30 30-31 21.5-28 16 6.5-36 21.5-15 17.5-16.5 9-14 3.5-17-3.5-9-9-8-11.5-6.5-29.5-6.5-28-3.5h-47l-45 3.5-50.5 6.5-27 5L405 197.5v15l4 4 5.5 3.5v3.5Z"/><path fill="#fff" stroke="#fff" d="m579.824 189.032-.324.121v2.268l-4.944 15.326-7.395 8.381-5.455 3.968-.072.052-.05.075-2 3-.518.777h2.727l1.353 1.354.147.146h63.516l.138-.276 1.5-3 .161-.323-.254-.255-1.5-1.5-.042-.041-.05-.031-6.393-3.934-3.369-5.775v-15.32l3.492-19.457.155-.865-.823.309-40 15Z"/><mask id="a" width="631" height="287" x="0" y="0" fill="#000" maskUnits="userSpaceOnUse"><path fill="#fff" d="M0 0h631v287H0z"/><path d="M332 7.5h-37l-1.5 2v3l6 3.5 3.5 3.5 1.5 7L303 38l-2 16-4 18-2 12h-1.5l-3.5-4-9.5-4.5-10-5.5-14-2.5H227L213 70l-15.5 4-12.5 6-14 9-11.5 9-9 10-8.5 12.5-4 9.5-4 2-20 8-23 10-29 14-23 16-17.5 15-12 16.5-5 12-2.5 10L4.5 244l9.5 11 10.5 8 16 8.5 17 6.5 15.5 3.5 26.5 4H194l59-6 18.5-2.5 37-5.5 69-14L451 238l45.5-14.5h5.5l1.5-2-1.5-4-9-8V198l3.5-18 1-6 1-8.5 1-4.5 1.5-9.5 1-6 1.5-12L508 119l5.5-12 9.5-9 10.5-3.5 13-2h10l6.5.5 7.5 3 4.5 2 3 2.5 5.5 5 5 9.5v28l-1.5 9.5-3.5 18-1.5 10-2 9 40.5-14.5 7-36.5 2.5-15v-21l-4-9.5-7.5-11.5-9-6.5-11-4.5-11-1.5-11-2h-15l-14 2-14 4-12.5 8.5-7.5 6-1.5 2-1.5-2 3-3.5v-7.5L516 69l-2.5-2h-3l-4 2-7 1.5h-36L461 74l2.5 2.5 6 5 2.5 4V103l-8.5 47.5-2.5 17-3.5 23-3.5 10-5.5 10.5-6.5 6.5-14 4-25.5 6.5-40.5 8.5-67.5 12-23 3L238 255l-20 2h-2.5l-40 1.5-29-1.5-15.5-2-11.5-3-15.5-5.5-8-6-6.5-7L86 227v-10.5l3.5-10.5 6.5-9.5 6.5-6.5 11.5-11 17-12.5v8.5l3 8.5 6 10 10 12.5 11.5 8 14 7.5 20 4 7.5 1.5h33l4.5-1.5 23-25 4.5-5-1-2h-3.5l-5 3-9.5 4-8.5 1.5H224l-6-1.5-7.5-1.5-7.5-2.5-5.5-3-8-5.5-4.5-4.5-5.5-7.5-3-9.5-1-10.5 1-14.5 3-9.5 7-11.5 16.5-18 15-7 16-4h8.5L253 93l10.5 4 11 5.5 6 5.5 4 7.5 1.5 10V138l-3.5 20-4.5 27-5 26-1.5 10.5 1.5 1.5h51.5v-3.5l-5-4.5-4-9.5v-12l31-189L346 1h-3l-4 4.5-7 2Z"/></mask><path fill="#fff" d="M332 7.5h-37l-1.5 2v3l6 3.5 3.5 3.5 1.5 7L303 38l-2 16-4 18-2 12h-1.5l-3.5-4-9.5-4.5-10-5.5-14-2.5H227L213 70l-15.5 4-12.5 6-14 9-11.5 9-9 10-8.5 12.5-4 9.5-4 2-20 8-23 10-29 14-23 16-17.5 15-12 16.5-5 12-2.5 10L4.5 244l9.5 11 10.5 8 16 8.5 17 6.5 15.5 3.5 26.5 4H194l59-6 18.5-2.5 37-5.5 69-14L451 238l45.5-14.5h5.5l1.5-2-1.5-4-9-8V198l3.5-18 1-6 1-8.5 1-4.5 1.5-9.5 1-6 1.5-12L508 119l5.5-12 9.5-9 10.5-3.5 13-2h10l6.5.5 7.5 3 4.5 2 3 2.5 5.5 5 5 9.5v28l-1.5 9.5-3.5 18-1.5 10-2 9 40.5-14.5 7-36.5 2.5-15v-21l-4-9.5-7.5-11.5-9-6.5-11-4.5-11-1.5-11-2h-15l-14 2-14 4-12.5 8.5-7.5 6-1.5 2-1.5-2 3-3.5v-7.5L516 69l-2.5-2h-3l-4 2-7 1.5h-36L461 74l2.5 2.5 6 5 2.5 4V103l-8.5 47.5-2.5 17-3.5 23-3.5 10-5.5 10.5-6.5 6.5-14 4-25.5 6.5-40.5 8.5-67.5 12-23 3L238 255l-20 2h-2.5l-40 1.5-29-1.5-15.5-2-11.5-3-15.5-5.5-8-6-6.5-7L86 227v-10.5l3.5-10.5 6.5-9.5 6.5-6.5 11.5-11 17-12.5v8.5l3 8.5 6 10 10 12.5 11.5 8 14 7.5 20 4 7.5 1.5h33l4.5-1.5 23-25 4.5-5-1-2h-3.5l-5 3-9.5 4-8.5 1.5H224l-6-1.5-7.5-1.5-7.5-2.5-5.5-3-8-5.5-4.5-4.5-5.5-7.5-3-9.5-1-10.5 1-14.5 3-9.5 7-11.5 16.5-18 15-7 16-4h8.5L253 93l10.5 4 11 5.5 6 5.5 4 7.5 1.5 10V138l-3.5 20-4.5 27-5 26-1.5 10.5 1.5 1.5h51.5v-3.5l-5-4.5-4-9.5v-12l31-189L346 1h-3l-4 4.5-7 2Z"/><path stroke="#fff" stroke-width="2" d="M332 7.5h-37l-1.5 2v3l6 3.5 3.5 3.5 1.5 7L303 38l-2 16-4 18-2 12h-1.5l-3.5-4-9.5-4.5-10-5.5-14-2.5H227L213 70l-15.5 4-12.5 6-14 9-11.5 9-9 10-8.5 12.5-4 9.5-4 2-20 8-23 10-29 14-23 16-17.5 15-12 16.5-5 12-2.5 10L4.5 244l9.5 11 10.5 8 16 8.5 17 6.5 15.5 3.5 26.5 4H194l59-6 18.5-2.5 37-5.5 69-14L451 238l45.5-14.5h5.5l1.5-2-1.5-4-9-8V198l3.5-18 1-6 1-8.5 1-4.5 1.5-9.5 1-6 1.5-12L508 119l5.5-12 9.5-9 10.5-3.5 13-2h10l6.5.5 7.5 3 4.5 2 3 2.5 5.5 5 5 9.5v28l-1.5 9.5-3.5 18-1.5 10-2 9 40.5-14.5 7-36.5 2.5-15v-21l-4-9.5-7.5-11.5-9-6.5-11-4.5-11-1.5-11-2h-15l-14 2-14 4-12.5 8.5-7.5 6-1.5 2-1.5-2 3-3.5v-7.5L516 69l-2.5-2h-3l-4 2-7 1.5h-36L461 74l2.5 2.5 6 5 2.5 4V103l-8.5 47.5-2.5 17-3.5 23-3.5 10-5.5 10.5-6.5 6.5-14 4-25.5 6.5-40.5 8.5-67.5 12-23 3L238 255l-20 2h-2.5l-40 1.5-29-1.5-15.5-2-11.5-3-15.5-5.5-8-6-6.5-7L86 227v-10.5l3.5-10.5 6.5-9.5 6.5-6.5 11.5-11 17-12.5v8.5l3 8.5 6 10 10 12.5 11.5 8 14 7.5 20 4 7.5 1.5h33l4.5-1.5 23-25 4.5-5-1-2h-3.5l-5 3-9.5 4-8.5 1.5H224l-6-1.5-7.5-1.5-7.5-2.5-5.5-3-8-5.5-4.5-4.5-5.5-7.5-3-9.5-1-10.5 1-14.5 3-9.5 7-11.5 16.5-18 15-7 16-4h8.5L253 93l10.5 4 11 5.5 6 5.5 4 7.5 1.5 10V138l-3.5 20-4.5 27-5 26-1.5 10.5 1.5 1.5h51.5v-3.5l-5-4.5-4-9.5v-12l31-189L346 1h-3l-4 4.5-7 2Z" mask="url(#a)"/></svg>

<svg width="731" height="287" viewBox="0 0 731 287" fill="none" xmlns="http://www.w3.org/2000/svg">
<path d="M414.5 223.5H339.5V220L345.5 216.5L354.5 209L358.5 197.5L380 83.5L382 66L385 63.5L424 55.5L427.5 39.5L386 48L385 46.5V35L387 31.5V23.5L385 18.5L380 14.5L373.5 12.5L376.5 9.5L447 7.5L450 9.5V12.5L442 16.5L436 23.5L432.5 31.5V35L452 31.5L487 26L519.5 21.5L546.5 18.5L578 16.5H615H648.5L670.5 18.5L692 23L709.5 28L717 33L724 39.5L728 48L730 53V70.5L726.5 81L721.5 90.5L709.5 107.5L679.5 137.5L648.5 159L620.5 175L627 139L648.5 124L666 107.5L675 93.5L678.5 76.5L675 67.5L666 59.5L654.5 53L625 46.5L597 43H550L505 46.5L454.5 53L427.5 58L405 197.5V212.5L409 216.5L414.5 220V223.5Z" fill="white" stroke="white"/>
<path d="M579.824 189.032L579.5 189.153V189.5V191.421L574.556 206.747L567.161 215.128L561.706 219.096L561.634 219.148L561.584 219.223L559.584 222.223L559.066 223H560H561.793L563.146 224.354L563.293 224.5H563.5H626.5H626.809L626.947 224.224L628.447 221.224L628.608 220.901L628.354 220.646L626.854 219.146L626.812 219.105L626.762 219.074L620.369 215.14L617 209.365V203V194.045L620.492 174.588L620.647 173.723L619.824 174.032L579.824 189.032Z" fill="white" stroke="white"/>
<mask id="path-3-outside-1_24_119" maskUnits="userSpaceOnUse" x="0" y="0" width="631" height="287" fill="black">
<rect fill="white" width="631" height="287"/>
<path d="M332 7.5H295L293.5 9.5V12.5L299.5 16L303 19.5L304.5 26.5L303 38L301 54L297 72L295 84H293.5L290 80L280.5 75.5L270.5 70L256.5 67.5H240H227L213 70L197.5 74L185 80L171 89L159.5 98L150.5 108L142 120.5L138 130L134 132L114 140L91 150L62 164L39 180L21.5 195L9.5 211.5L4.5 223.5L2 233.5L4.5 244L14 255L24.5 263L40.5 271.5L57.5 278L73 281.5L99.5 285.5H167H194L253 279.5L271.5 277L308.5 271.5L377.5 257.5L451 238L496.5 223.5H502L503.5 221.5L502 217.5L493 209.5V198L496.5 180L497.5 174L498.5 165.5L499.5 161L501 151.5L502 145.5L503.5 133.5L508 119L513.5 107L523 98L533.5 94.5L546.5 92.5H556.5L563 93L570.5 96L575 98L578 100.5L583.5 105.5L588.5 115V122V138.5V143L587 152.5L583.5 170.5L582 180.5L580 189.5L620.5 175L627.5 138.5L630 123.5V115V102.5L626 93L618.5 81.5L609.5 75L598.5 70.5L587.5 69L576.5 67H561.5L547.5 69L533.5 73L521 81.5L513.5 87.5L512 89.5L510.5 87.5L513.5 84V76.5L516 69L513.5 67H510.5L506.5 69L499.5 70.5H463.5L461 74L463.5 76.5L469.5 81.5L472 85.5V103L463.5 150.5L461 167.5L457.5 190.5L454 200.5L448.5 211L442 217.5L428 221.5L402.5 228L362 236.5L294.5 248.5L271.5 251.5L238 255L218 257H215.5L175.5 258.5L146.5 257L131 255L119.5 252L104 246.5L96 240.5L89.5 233.5L86 227V216.5L89.5 206L96 196.5L102.5 190L114 179L131 166.5V175L134 183.5L140 193.5L150 206L161.5 214L175.5 221.5L195.5 225.5L203 227H222.5H236L240.5 225.5L263.5 200.5L268 195.5L267 193.5H263.5L258.5 196.5L249 200.5L240.5 202H224L218 200.5L210.5 199L203 196.5L197.5 193.5L189.5 188L185 183.5L179.5 176L176.5 166.5L175.5 156L176.5 141.5L179.5 132L186.5 120.5L203 102.5L218 95.5L234 91.5H242.5L253 93L263.5 97L274.5 102.5L280.5 108L284.5 115.5L286 125.5V138L282.5 158L278 185L273 211L271.5 221.5L273 223H324.5V219.5L319.5 215L315.5 205.5V193.5L346.5 4.5L346 1H343L339 5.5L332 7.5Z"/>
</mask>
<path d="M332 7.5H295L293.5 9.5V12.5L299.5 16L303 19.5L304.5 26.5L303 38L301 54L297 72L295 84H293.5L290 80L280.5 75.5L270.5 70L256.5 67.5H240H227L213 70L197.5 74L185 80L171 89L159.5 98L150.5 108L142 120.5L138 130L134 132L114 140L91 150L62 164L39 180L21.5 195L9.5 211.5L4.5 223.5L2 233.5L4.5 244L14 255L24.5 263L40.5 271.5L57.5 278L73 281.5L99.5 285.5H167H194L253 279.5L271.5 277L308.5 271.5L377.5 257.5L451 238L496.5 223.5H502L503.5 221.5L502 217.5L493 209.5V198L496.5 180L497.5 174L498.5 165.5L499.5 161L501 151.5L502 145.5L503.5 133.5L508 119L513.5 107L523 98L533.5 94.5L546.5 92.5H556.5L563 93L570.5 96L575 98L578 100.5L583.5 105.5L588.5 115V122V138.5V143L587 152.5L583.5 170.5L582 180.5L580 189.5L620.5 175L627.5 138.5L630 123.5V115V102.5L626 93L618.5 81.5L609.5 75L598.5 70.5L587.5 69L576.5 67H561.5L547.5 69L533.5 73L521 81.5L513.5 87.5L512 89.5L510.5 87.5L513.5 84V76.5L516 69L513.5 67H510.5L506.5 69L499.5 70.5H463.5L461 74L463.5 76.5L469.5 81.5L472 85.5V103L463.5 150.5L461 167.5L457.5 190.5L454 200.5L448.5 211L442 217.5L428 221.5L402.5 228L362 236.5L294.5 248.5L271.5 251.5L238 255L218 257H215.5L175.5 258.5L146.5 257L131 255L119.5 252L104 246.5L96 240.5L89.5 233.5L86 227V216.5L89.5 206L96 196.5L102.5 190L114 179L131 166.5V175L134 183.5L140 193.5L150 206L161.5 214L175.5 221.5L195.5 225.5L203 227H222.5H236L240.5 225.5L263.5 200.5L268 195.5L267 193.5H263.5L258.5 196.5L249 200.5L240.5 202H224L218 200.5L210.5 199L203 196.5L197.5 193.5L189.5 188L185 183.5L179.5 176L176.5 166.5L175.5 156L176.5 141.5L179.5 132L186.5 120.5L203 102.5L218 95.5L234 91.5H242.5L253 93L263.5 97L274.5 102.5L280.5 108L284.5 115.5L286 125.5V138L282.5 158L278 185L273 211L271.5 221.5L273 223H324.5V219.5L319.5 215L315.5 205.5V193.5L346.5 4.5L346 1H343L339 5.5L332 7.5Z" fill="white"/>
<path d="M332 7.5H295L293.5 9.5V12.5L299.5 16L303 19.5L304.5 26.5L303 38L301 54L297 72L295 84H293.5L290 80L280.5 75.5L270.5 70L256.5 67.5H240H227L213 70L197.5 74L185 80L171 89L159.5 98L150.5 108L142 120.5L138 130L134 132L114 140L91 150L62 164L39 180L21.5 195L9.5 211.5L4.5 223.5L2 233.5L4.5 244L14 255L24.5 263L40.5 271.5L57.5 278L73 281.5L99.5 285.5H167H194L253 279.5L271.5 277L308.5 271.5L377.5 257.5L451 238L496.5 223.5H502L503.5 221.5L502 217.5L493 209.5V198L496.5 180L497.5 174L498.5 165.5L499.5 161L501 151.5L502 145.5L503.5 133.5L508 119L513.5 107L523 98L533.5 94.5L546.5 92.5H556.5L563 93L570.5 96L575 98L578 100.5L583.5 105.5L588.5 115V122V138.5V143L587 152.5L583.5 170.5L582 180.5L580 189.5L620.5 175L627.5 138.5L630 123.5V115V102.5L626 93L618.5 81.5L609.5 75L598.5 70.5L587.5 69L576.5 67H561.5L547.5 69L533.5 73L521 81.5L513.5 87.5L512 89.5L510.5 87.5L513.5 84V76.5L516 69L513.5 67H510.5L506.5 69L499.5 70.5H463.5L461 74L463.5 76.5L469.5 81.5L472 85.5V103L463.5 150.5L461 167.5L457.5 190.5L454 200.5L448.5 211L442 217.5L428 221.5L402.5 228L362 236.5L294.5 248.5L271.5 251.5L238 255L218 257H215.5L175.5 258.5L146.5 257L131 255L119.5 252L104 246.5L96 240.5L89.5 233.5L86 227V216.5L89.5 206L96 196.5L102.5 190L114 179L131 166.5V175L134 183.5L140 193.5L150 206L161.5 214L175.5 221.5L195.5 225.5L203 227H222.5H236L240.5 225.5L263.5 200.5L268 195.5L267 193.5H263.5L258.5 196.5L249 200.5L240.5 202H224L218 200.5L210.5 199L203 196.5L197.5 193.5L189.5 188L185 183.5L179.5 176L176.5 166.5L175.5 156L176.5 141.5L179.5 132L186.5 120.5L203 102.5L218 95.5L234 91.5H242.5L253 93L263.5 97L274.5 102.5L280.5 108L284.5 115.5L286 125.5V138L282.5 158L278 185L273 211L271.5 221.5L273 223H324.5V219.5L319.5 215L315.5 205.5V193.5L346.5 4.5L346 1H343L339 5.5L332 7.5Z" stroke="white" stroke-width="2" mask="url(#path-3-outside-1_24_119)"/>
</svg>
